X:7661
T:Trip to Athlone
T:Newport Lass, The
O:england
R:jig
M:6/8
L:1/8
K:D
A{d}BA D2d|{e}dcA AGE|A{d}BA ABc|dAB cde|
A{d}BA D2d|{e}dcA AGE|~G3 Ade|1 {a}fdc dcB:|2 {a}fdc d2e||
{a}fed edc|Add cde|~f3 gec|ABc def|
~g3 age|dcA AGE||~G3 Ade|1 {a}fdc d2e:|2 {a}fdc dcB||


